svgs/duotone/file-invoice-dollar.svg

<svg xmlns="http://www.w3.org/2000/svg" viewBox="0 0 384 512"><!--! Font Awesome Pro 6.3.0 by @fontawesome - https://fontawesome.com License - https://fontawesome.com/license (Commercial License) Copyright 2023 Fonticons, Inc. --><defs><style>.fa-secondary{opacity:.4}</style></defs><path class="fa-primary" d="M256 0v128h128L256 0zM197.5 316.8L191.1 315.2C168.3 308.2 168.8 304.1 169.6 300.5c1.375-7.812 16.59-9.719 30.27-7.625c5.594 .8438 11.73 2.812 17.59 4.844c10.39 3.594 21.83-1.938 25.45-12.34c3.625-10.44-1.891-21.84-12.33-25.47c-7.219-2.484-13.11-4.078-18.56-5.273V248c0-11.03-8.953-20-20-20s-20 8.969-20 20v5.992C149.6 258.8 133.8 272.8 130.2 293.7c-7.406 42.84 33.19 54.75 50.52 59.84l5.812 1.688c29.28 8.375 28.8 11.19 27.92 16.28c-1.375 7.812-16.59 9.75-30.31 7.625c-6.938-1.031-15.81-4.219-23.66-7.031l-4.469-1.625c-10.41-3.594-21.83 1.812-25.52 12.22c-3.672 10.41 1.781 21.84 12.2 25.53l4.266 1.5c7.758 2.789 16.38 5.59 25.06 7.512V424c0 11.03 8.953 20 20 20s20-8.969 20-20v-6.254c22.36-4.793 38.21-18.53 41.83-39.43C261.3 335 219.8 323.1 197.5 316.8z"/><path class="fa-secondary" d="M256 128V0H48C21.49 0 0 21.49 0 48v416C0 490.5 21.49 512 48 512h288c26.51 0 48-21.49 48-48V128H256zM64 72C64 67.63 67.63 64 72 64h80C156.4 64 160 67.63 160 72v16C160 92.38 156.4 96 152 96h-80C67.63 96 64 92.38 64 88V72zM64 152v-16C64 131.6 67.63 128 72 128h80C156.4 128 160 131.6 160 136v16C160 156.4 156.4 160 152 160h-80C67.63 160 64 156.4 64 152zM253.8 378.3c-3.623 20.91-19.47 34.64-41.83 39.43V424c0 11.03-8.953 20-20 20s-20-8.969-20-20v-6.77c-8.682-1.922-17.3-4.723-25.06-7.512l-4.266-1.5c-10.42-3.688-15.88-15.12-12.2-25.53c3.688-10.41 15.11-15.81 25.52-12.22l4.469 1.625c7.844 2.812 16.72 6 23.66 7.031c13.72 2.125 28.94 .1875 30.31-7.625c.875-5.094 1.359-7.906-27.92-16.28l-5.812-1.688c-17.33-5.094-57.92-17-50.52-59.84C133.8 272.8 149.6 258.8 172 253.1V248c0-11.03 8.953-20 20-20s20 8.969 20 20v6.633c5.453 1.195 11.34 2.789 18.56 5.273c10.44 3.625 15.95 15.03 12.33 25.47c-3.625 10.41-15.06 15.94-25.45 12.34c-5.859-2.031-12-4-17.59-4.844C186.2 290.8 170.1 292.7 169.6 300.5C168.8 304.1 168.3 308.2 191.1 315.2l5.547 1.594C219.8 323.1 261.3 335 253.8 378.3z"/></svg>

<svg xmlns="http://www.w3.org/2000/svg" viewBox="0 0 384 512"><!-- Font Awesome Pro 6.0.0-alpha2 by @fontawesome - https://fontawesome.com License - https://fontawesome.com/license (Commercial License) --><defs><style>.fa-secondary{opacity:.4}</style></defs><path d="M256 128V0H48C21.492 0 0 21.492 0 48V464C0 490.508 21.492 512 48 512H336C362.508 512 384 490.508 384 464V128H256ZM64 72C64 67.625 67.625 64 72 64H152C156.375 64 160 67.625 160 72V88C160 92.375 156.375 96 152 96H72C67.625 96 64 92.375 64 88V72ZM64 152V136C64 131.625 67.625 128 72 128H152C156.375 128 160 131.625 160 136V152C160 156.375 156.375 160 152 160H72C67.625 160 64 156.375 64 152ZM253.83 378.312C250.207 399.219 234.363 412.953 212.002 417.746V424C212.002 435.031 203.049 444 192.002 444S172.002 435.031 172.002 424V417.23C163.32 415.309 154.697 412.508 146.939 409.719L142.674 408.219C132.252 404.531 126.799 393.094 130.471 382.687C134.158 372.281 145.58 366.875 155.986 370.469L160.455 372.094C168.299 374.906 177.174 378.094 184.111 379.125C197.83 381.25 213.049 379.312 214.424 371.5C215.299 366.406 215.783 363.594 186.502 355.219L180.689 353.531C163.361 348.437 122.768 336.531 130.174 293.687C133.811 272.75 149.58 258.762 172.002 253.992V248C172.002 236.969 180.955 228 192.002 228S212.002 236.969 212.002 248V254.633C217.455 255.828 223.346 257.422 230.564 259.906C241.002 263.531 246.518 274.938 242.893 285.375C239.268 295.781 227.83 301.312 217.439 297.719C211.58 295.687 205.439 293.719 199.846 292.875C186.174 290.781 170.955 292.688 169.58 300.5C168.814 304.969 168.252 308.188 191.955 315.156L197.502 316.75C219.799 323.125 261.314 335.031 253.83 378.312Z" class="fa-secondary"/><path d="M255.719 0V128H383.719L255.719 0ZM197.221 316.75L191.674 315.156C167.971 308.188 168.534 304.969 169.299 300.5C170.674 292.688 185.893 290.781 199.565 292.875C205.159 293.719 211.299 295.688 217.159 297.719C227.549 301.313 238.987 295.781 242.612 285.375C246.237 274.938 240.721 263.531 230.284 259.906C223.065 257.422 217.174 255.828 211.721 254.633V248C211.721 236.969 202.768 228 191.721 228S171.721 236.969 171.721 248V253.992C149.299 258.762 133.53 272.75 129.893 293.688C122.487 336.531 163.08 348.438 180.409 353.531L186.221 355.219C215.502 363.594 215.018 366.406 214.143 371.5C212.768 379.313 197.549 381.25 183.83 379.125C176.893 378.094 168.018 374.906 160.174 372.094L155.705 370.469C145.299 366.875 133.877 372.281 130.19 382.688C126.518 393.094 131.971 404.531 142.393 408.219L146.659 409.719C154.416 412.508 163.039 415.309 171.721 417.23V424C171.721 435.031 180.674 444 191.721 444S211.721 435.031 211.721 424V417.746C234.082 412.953 249.926 399.219 253.549 378.312C261.034 335.031 219.518 323.125 197.221 316.75Z" class="fa-primary"/></svg>
